!!!OTL: Liza Jane
!!!ARE: United States of America
!!!AGN: Southern Folksong
!!!AMD: Pentatonic
**kern
=1-
*clefG2
*k[b-]
*M2/4
*MM116
{8a/L
[16a/L
16a/JJ]
8g/L
8f/J
=2
8a\L
8cc\J
4cc\}
=3
{8dd\
4cc\
8a/
=4
2cc\}
=5
{8a/L
8a/J
8g/L
8f/J
=6
8a\L
8cc\J
4cc\}
=7
{8a/
4a/
8g/
=8
2f/}
=9
{4.ff\
8cc\
=10
4dd\
4cc\
=11
8dd\
4cc\
8a/
=12
2cc\}
=13
{4.ff\
8cc\
=14
4dd\
4cc\
=15
8a/
4a/
8g/
=16
2f/}
==
*-
